X:1
T:Polonäs efter Ragnar Schelén
O:Västmanland
S:efter Ragnar Schelén
R:Polska
Z: Nils L
B:SMUS katalog MMD36 nr 15 (låt nr 40) 
L:1/8
K:Am
A3 Bcd | e2 e^dea | f2 fefa | e2 edef | ed e2 e2 | dc B2 B2 | "^?"A2 "^?"A^G/A/ BA | ^G2 e4 :: 
g>f e2 g2 | a>gf>e f2 | d'c' b2 g2 | e'>d'c'>b c'2 | 
g>f e2 g2 | a>gf>e f2 | d'c' b2 g2 | c'2 c'4 :|

